X:4110
T:The Roselath Cross
P:The Roselath Cross
C:Kerrell Garner
R:Jig (8x32)
B:RSCDS 41-10
Z:Anselm Lingnau <anselm@strathspey.org>
M:6/8
L:1/8
K:G
D|"G"G2B F2B|E2B D2d|"G/B"G>dB "D7"AGA|"G"B3-B2 B|
  "Am"c2e B2d|"Am/C"A2c "A7"G2B|"D"FDF "A7"AGE|"D"D3-D2||\
D|"G"G2B F2B|E2B D2d|
                     "G/B"D>GB "D7"AGA|"G"B3-B2 B|\
  "Am/C"A2e "G/B"B2e|"Am"c2d ece|"G/D"d2B "D7"dcA|"G"G3-G2||
B|"Em"E2B "B7"^D2B|"Em"E2B "Em/G"B,2E|"Am"C>EC EDC|"Em"B,3-B,2 B,|
  "Bm"D2F "F#7"[^C2^A,2]F|"Bm"[D2B,2]E "Bm/D"FDB|"D/A"A2F "A7"AGE|"D"D3-D2||\
D|"G"G2B F2B|E>GB D2B|
                      "G/B"G>dB "D7"{B}AGA|"G"B3-B2 B|\
  "Am/C"A2e "E7/B"B2e|"Am"c>de "D7"fga|"C"ged "D7"cBA|"G"G3-G2|]
